icons/verified-16.svg

<svg width="16" height="16" viewBox="0 0 16 16" xmlns="http://www.w3.org/2000/svg">
  <path fill-rule="evenodd" clip-rule="evenodd" d="M9.58507 0.51936C8.64181 -0.17312 7.3582 -0.17312 6.41493 0.51936L5.48738 1.2003C5.33429 1.31269 5.1563 1.38642 4.96858 1.4152L3.8312 1.58958C2.67456 1.76691 1.76691 2.67456 1.58958 3.8312L1.4152 4.96858C1.38642 5.1563 1.31269 5.33429 1.2003 5.48738L0.51936 6.41493C-0.17312 7.3582 -0.17312 8.6418 0.51936 9.58507L1.2003 10.5126C1.31269 10.6657 1.38642 10.8437 1.4152 11.0314L1.58958 12.1688C1.76691 13.3254 2.67456 14.2331 3.8312 14.4104L4.96858 14.5848C5.1563 14.6136 5.33429 14.6873 5.48738 14.7997L6.41493 15.4806C7.3582 16.1731 8.6418 16.1731 9.58507 15.4806L10.5126 14.7997C10.6657 14.6873 10.8437 14.6136 11.0314 14.5848L12.1688 14.4104C13.3254 14.2331 14.2331 13.3254 14.4104 12.1688L14.5848 11.0314C14.6136 10.8437 14.6873 10.6657 14.7997 10.5126L15.4806 9.58507C16.1731 8.6418 16.1731 7.3582 15.4806 6.41493L14.7997 5.48738C14.6873 5.33429 14.6136 5.1563 14.5848 4.96858L14.4104 3.8312C14.2331 2.67456 13.3254 1.76691 12.1688 1.58958L11.0314 1.4152C10.8437 1.38642 10.6657 1.31269 10.5126 1.2003L9.58507 0.51936ZM7.3026 1.72851C7.71762 1.42383 8.28238 1.42383 8.6974 1.72851L9.62494 2.40945C9.9729 2.66489 10.3774 2.83246 10.8041 2.89787L11.9415 3.07225C12.4504 3.15027 12.8497 3.54962 12.9277 4.05852L13.1021 5.19589C13.1675 5.62256 13.3351 6.0271 13.5906 6.37506L14.2715 7.3026C14.5762 7.71762 14.5762 8.28238 14.2715 8.6974L13.5906 9.62494C13.3351 9.9729 13.1675 10.3774 13.1021 10.8041L12.9277 11.9415C12.8497 12.4504 12.4504 12.8497 11.9415 12.9277L10.8041 13.1021C10.3774 13.1675 9.9729 13.3351 9.62494 13.5906L8.6974 14.2715C8.28238 14.5762 7.71762 14.5762 7.3026 14.2715L6.37506 13.5906C6.0271 13.3351 5.62256 13.1675 5.19589 13.1021L4.05852 12.9277C3.54962 12.8497 3.15027 12.4504 3.07225 11.9415L2.89787 10.8041C2.83246 10.3774 2.66489 9.9729 2.40945 9.62494L1.72851 8.6974C1.42383 8.28238 1.42383 7.71762 1.72851 7.3026L2.40945 6.37505C2.66489 6.0271 2.83246 5.62256 2.89787 5.19589L3.07225 4.05852C3.15027 3.54962 3.54962 3.15027 4.05852 3.07225L5.19589 2.89787C5.62256 2.83246 6.0271 2.66489 6.37505 2.40945L7.3026 1.72851ZM11.2803 6.78033C11.5732 6.48744 11.5732 6.01256 11.2803 5.71967C10.9874 5.42678 10.5126 5.42678 10.2197 5.71967L7 8.93934L5.78033 7.71967C5.48744 7.42678 5.01256 7.42678 4.71967 7.71967C4.42678 8.01256 4.42678 8.48744 4.71967 8.78033L6.46967 10.5303C6.76256 10.8232 7.23744 10.8232 7.53033 10.5303L11.2803 6.78033Z"/>
</svg>

<svg xmlns="http://www.w3.org/2000/svg" width="16" height="16" viewBox="0 0 16 16"><path fill-rule="evenodd" d="M9.585.52a2.678 2.678 0 00-3.17 0l-.928.68a1.178 1.178 0 01-.518.215L3.83 1.59a2.678 2.678 0 00-2.24 2.24l-.175 1.14a1.178 1.178 0 01-.215.518l-.68.928a2.678 2.678 0 000 3.17l.68.928c.113.153.186.33.215.518l.175 1.138a2.678 2.678 0 002.24 2.24l1.138.175c.187.029.365.102.518.215l.928.68a2.678 2.678 0 003.17 0l.928-.68a1.17 1.17 0 01.518-.215l1.138-.175a2.678 2.678 0 002.241-2.241l.175-1.138c.029-.187.102-.365.215-.518l.68-.928a2.678 2.678 0 000-3.17l-.68-.928a1.179 1.179 0 01-.215-.518L14.41 3.83a2.678 2.678 0 00-2.24-2.24l-1.138-.175a1.179 1.179 0 01-.518-.215L9.585.52zM7.303 1.728c.415-.305.98-.305 1.394 0l.928.68c.348.256.752.423 1.18.489l1.136.174c.51.078.909.478.987.987l.174 1.137c.066.427.233.831.489 1.18l.68.927c.305.415.305.98 0 1.394l-.68.928a2.678 2.678 0 00-.489 1.18l-.174 1.136a1.178 1.178 0 01-.987.987l-1.137.174a2.678 2.678 0 00-1.18.489l-.927.68c-.415.305-.98.305-1.394 0l-.928-.68a2.678 2.678 0 00-1.18-.489l-1.136-.174a1.178 1.178 0 01-.987-.987l-.174-1.137a2.678 2.678 0 00-.489-1.18l-.68-.927a1.178 1.178 0 010-1.394l.68-.928c.256-.348.423-.752.489-1.18l.174-1.136c.078-.51.478-.909.987-.987l1.137-.174a2.678 2.678 0 001.18-.489l.927-.68zM11.28 6.78a.75.75 0 00-1.06-1.06L7 8.94 5.78 7.72a.75.75 0 00-1.06 1.06l1.75 1.75a.75.75 0 001.06 0l3.75-3.75z"/></svg>
